app/images/phone-contacts.svg

<svg width="117" height="117" viewBox="0 0 117 117" fill="none" xmlns="http://www.w3.org/2000/svg">
<circle cx="54.8511" cy="54.2256" r="54.2256" fill="#266EF8" fill-opacity="0.42"/>
<circle cx="62.5064" cy="61.8808" r="53.5877" stroke="#626262" stroke-width="1.2759"/>
<path d="M73.2991 67.7658L81.8398 76.3065C82.9883 77.455 82.9883 79.317 81.8398 80.4655C75.6306 86.6747 65.8006 87.3733 58.7757 82.1046L53.6947 78.2939C48.0715 74.0764 43.0763 69.0812 38.8589 63.458L35.0481 58.377C29.7794 51.3521 30.478 41.5221 36.6872 35.3129C37.8357 34.1644 39.6977 34.1644 40.8462 35.3129L49.3869 43.8536C50.6464 45.1131 50.6464 47.1552 49.3869 48.4147L46.0935 51.7081C45.5701 52.2315 45.4404 53.0311 45.7714 53.6931C49.5986 61.3475 55.8052 67.5541 63.4596 71.3813C64.1216 71.7124 64.9212 71.5826 65.4446 71.0592L68.738 67.7658C69.9975 66.5063 72.0396 66.5063 73.2991 67.7658Z" fill="#292D32"/>
<path fill-rule="evenodd" clip-rule="evenodd" d="M81.84 80.4655C82.9884 79.317 82.9884 77.455 81.84 76.3065L73.2993 67.7658C72.0398 66.5063 69.9977 66.5063 68.7382 67.7658L66.1809 70.323L78.7747 82.9168C79.8653 82.2285 80.8946 81.4109 81.84 80.4655ZM34.2361 38.3782L46.8298 50.9719L49.3871 48.4147C50.6466 47.1552 50.6466 45.1131 49.3871 43.8536L40.8464 35.3129C39.6981 34.1647 37.8366 34.1644 36.6881 35.3122C36.6878 35.3124 36.6876 35.3127 36.6874 35.3129C36.6868 35.3135 36.6862 35.3141 36.6856 35.3147C35.741 36.2596 34.9239 37.2883 34.2361 38.3782Z" fill="#292D32"/>
</svg>

<svg width="117" height="117" fill="none" xmlns="http://www.w3.org/2000/svg"><circle cx="54.851" cy="54.226" r="54.226" fill="#266EF8" fill-opacity=".42"/><circle cx="62.506" cy="61.881" r="53.588" stroke="#626262" stroke-width="1.276"/><path d="m73.3 67.766 8.54 8.54a2.94 2.94 0 0 1 0 4.16c-6.21 6.209-16.04 6.907-23.064 1.639l-5.081-3.811a74.182 74.182 0 0 1-14.836-14.836l-3.81-5.081c-5.27-7.025-4.571-16.855 1.638-23.064a2.94 2.94 0 0 1 4.16 0l8.54 8.54a3.225 3.225 0 0 1 0 4.562l-3.294 3.293a1.72 1.72 0 0 0-.322 1.985A39.552 39.552 0 0 0 63.46 71.381a1.72 1.72 0 0 0 1.985-.322l3.293-3.293a3.225 3.225 0 0 1 4.561 0Z" fill="#292D32"/><path fill-rule="evenodd" clip-rule="evenodd" d="M81.84 80.466a2.941 2.941 0 0 0 0-4.16l-8.54-8.54a3.225 3.225 0 0 0-4.562 0l-2.557 2.557 12.594 12.594a17.67 17.67 0 0 0 3.065-2.451ZM34.236 38.378 46.83 50.972l2.557-2.557a3.225 3.225 0 0 0 0-4.561l-8.54-8.541a2.94 2.94 0 0 0-4.159 0l-.002.002a17.67 17.67 0 0 0-2.45 3.063Z" fill="#292D32"/></svg>
